X:1
T:Where the Cross Is Leading
T:Where the Cross Is Leading
T:Bentley DeForest Ackley
T:Lizzie Dearmond & Charles H. Gabriel, 1913
T:Public Domain Courtesy of the Cyber Hymnal™
T:Public Domain Courtesy of the Cyber Hymnal™
C:Bentley DeForest Ackley
Z:Public Domain
Z:Courtesy of the Cyber Hymnal™
%%score ( 1 2 ) ( 3 4 )
L:1/8
Q:1/4=110
M:4/4
K:Ab
V:1 treble 
V:2 treble 
V:3 bass 
V:4 bass 
V:1
 [CE]2 [A,C]>[B,D] [CE]2 [CA]2 | [Ec]4 A4 | [FA]2 [=EG]>[GB] [FA]2 [DF]2 | [DF]2 [CE]2 [CE]4 | %4
w: 1.~On where the cross is|lead- ing,|Un- der the glo- rious|ban- ner go;|
w: 2.~Clos- er a- round us|throng- ing|Ga- ther the might- y|hosts of sin;|
w: 3.~On where the cross is|lead- ing!|Fear not, tho’ march- ing|days be long;|
 E2 [EG]>[GB] [Ge]2 [Fd]2 | [Fd]2 [Ec]2 [Ec]2 [EA]2 | [=DF]2 [DG]>[DA] [Dc]2 [D_c]2 | %7
w: March- ing in phal- anx|brave and strong, We|fear not to meet the|
w: Yet, while our great com-|mand- er leads, We’ll|fight, and the tri- umph|
w: Ours is the bat- tle,|His the tri- umph,|Ours be the vic- tor’s|
 [EB]6 z2 x4 ||"^Refrain" [Ec]4 [Ec]3 [Ec] | [FB]>[FA] [EG]>[DF] (3(EFG(3ABc) | [Ee]4 [Ee]3 [Ec] | %11
w: foe.||||
w: win.|On, on, u-|nit- ed in His love! * * * * *|On, on, to|
w: song.||||
 [CA]>[CA] [=DB]>[Dc] B4 | [Ec]2 [Ec]>[Ec] [Ee]2 [Ee]2 | [FA]2 [FA]>[FB] [=Ec]2 [Ec]2 | %14
w: |||
w: joy and peace a- bove;|March- ing to- ge- ther,|loy- al for- ev- er,|
w: |||
 [Ed]2 [Ec]>[EB] [Ee]2 [FA]2 | [Ec]2 [DB]>[DB] [CA]4 |] %16
w: ||
w: Je- sus is lead- ing—|on for the King!|
w: ||
V:2
 x8 | x4 (C2 E2) | x8 | x8 | E2 x6 | x8 | x8 | x12 || x8 | x4 C4 | x8 | x4 (3(EEF(3GAB) | x8 | x8 | %14
 x8 | x8 |] %16
V:3
 [A,,A,]2 [A,,E,]>[A,,E,] [A,,A,]2 [A,,A,]2 | [A,,A,]4 A,4 | [D,D]2 [D,D]>[D,D] [D,D]2 [D,A,]2 | %3
 [A,,A,]2 [A,,A,]2 [A,,A,]4 | [E,G,]2 [E,B,]>[E,E] [E,B,]2 [E,G,]2 | A,2 A,2 A,2 [C,A,]2 | %6
 [B,,A,]2 [B,,A,]>[B,,A,] [B,,A,]2 [B,,A,]2 | z2 x10 || ([A,,A,]2 [C,A,]2) ([E,A,]2 A,)A, | %9
 [D,D]>[D,D] [D,A,]>[D,A,] [A,,A,]4 | ([A,,C]2 [C,A,]2) ([E,C]2 [A,C])A, | %11
 [F,A,]>[F,A,] [B,,A,]>[B,,A,] [E,G,]4 | A,2 A,>A, [G,B,]2 [G,B,]2 | %13
 [F,C]2 [D,D]>[D,F,] [C,G,]2 [C,G,]2 | [B,,G,]2 [E,G,]>[D,G,] [C,A,]2 [D,A,]2 | %15
 [E,A,]2 [E,G,]>[E,G,] [A,,A,]4 |] %16
V:4
 x8 | x4 (A,,2 C,2) | x8 | x8 | x8 | A,2 A,2 A,2 x2 | x8 | [E,G,]6 G,>F, E,D,C,B,, || x6 A,A, | %9
 x8 | x7 A, | x8 | A,2 A,>A, x4 | x8 | x8 | x8 |] %16

